!!!OTL: Die Rabenmutter ohne Text
!!!ARE: Europa, Osteuropa, Ungarn
!!!YOR: 5, S. 270
!!    ????
!!!SCT: Q0114X
!!!YEM: Copyright 1995, estate of Helmut Schaffrath.
**kern
*ICvox
*Ivox
!! Irregular meter.
*MX
*k[f#]
*G:
{8g
=1
8g
8g
8g
8g
=2
8gg
8ee
4dd
=3
8gg
8ee
8dd}
{8cc
=4
8b
8ee
4dd
4a
=5
8cc
8dd
8b}
{8a
8b
8ee
=6
4dd
4a
8cc
8dd
=7
4b
8r}
==
!!!AGN: Ballade, Kinds - Mord, Strafe
!!!ONB: ESAC (Essen Associative Code) Database: BALLADE
!!!AMT: irregular
!!!AIN: vox
!!!EED: Helmut Schaffrath
!!!EEV: 1.0
*-
